X:600
T:Miss Young
R:Strathspey
C:William Marshall
N:variations: 5th measure, 'B' part: a<F F>a g<E E>g|F<aE<g D/D/D D>E|
B:The Athole Collection
M:C
L:1/8
K:C
E/F/|G>E G<c G>E G<c|e>d c<e d/d/d dE/F/|G>E G<c G>E G<c|
F>A G<E C/C/C C:|
e/f/|~g>a g<e ~g>a g<e|c>e g<e d/d/d de/f/|~g>a g<e ~g>a g<e|
f<d g>e c/c/c ~cf/g/|a<f f>a g<e e>g|f<ae<g D/D/D D>E|
C>DE>F G>A B<c|G>EF>D C/C/C C||

